X: 2
T: Spórt
R: jig
M: 6/8
L: 1/8
K: Dmaj
FG|AdF ~A2A|GBE GFG| AdF ~A2A|GAB cde|AdF ~A2A|GBE G2d|cdc A2G|EA~AD2 :| |: dc2 cd2|dcd cA2|def efg|edc dcA-|Ade fef|gfg age|def dFA-|AGE AD2:||:FG|AGG AEE|AGG EDD|AGG A2d|cdc A2F|GAG GAE|EAG GED|Dcd cA2|GE A~A [1 D:|| [2 D3:||


Tune 870	Setting 870

